tools/download-figma-icons/icons/outlined-medium/battery-active.svg

<svg width="24" height="24" viewBox="0 0 24 24" fill="none" xmlns="http://www.w3.org/2000/svg">
<path fill-rule="evenodd" clip-rule="evenodd" d="M17.2477 22.5C17.6625 22.5 18 22.1625 18 21.7477V4.50225C18 4.0875 17.6625 3.75 17.2477 3.75H15V1.5H9V3.75H6.75225C6.3375 3.75 6 4.0875 6 4.50225V21.7477C6 22.1625 6.3375 22.5 6.75225 22.5H17.2477ZM16.5 2.25H17.2477C18.4897 2.25 19.5 3.26025 19.5 4.50225V21.7477C19.5 22.9897 18.4897 24 17.2477 24H6.75225C5.51025 24 4.5 22.9897 4.5 21.7477V4.50225C4.5 3.26025 5.51025 2.25 6.75225 2.25H7.5V1.5C7.5 0.67275 8.17275 0 9 0H15C15.8273 0 16.5 0.67275 16.5 1.5V2.25ZM12.7503 11.9999H15.0498C15.3056 11.9999 15.5403 12.1432 15.6633 12.3742C15.7893 12.6104 15.7766 12.8917 15.6303 13.1092L12.4976 17.6924C12.3656 17.8882 12.1518 18 11.9291 18C11.8638 18 11.7978 17.9902 11.7333 17.9707C11.4438 17.8822 11.2503 17.6129 11.2503 17.3017V14.2499H8.95006C8.69431 14.2499 8.45956 14.1067 8.33656 13.8757C8.21056 13.6395 8.22331 13.3582 8.36956 13.1407L11.5031 8.55745C11.6726 8.3047 11.9816 8.1922 12.2666 8.2792C12.5561 8.3677 12.7503 8.63695 12.7503 8.9482V11.9999Z" fill="black"/>
</svg>

<svg width="24" height="24" viewBox="0 0 24 24" fill="none" xmlns="http://www.w3.org/2000/svg"><path fill-rule="evenodd" clip-rule="evenodd" d="M17.248 22.5a.753.753 0 0 0 .752-.752V4.502a.753.753 0 0 0-.752-.752H15V1.5H9v2.25H6.752A.753.753 0 0 0 6 4.502v17.246c0 .415.338.752.752.752h10.496ZM16.5 2.25h.748A2.255 2.255 0 0 1 19.5 4.502v17.246A2.255 2.255 0 0 1 17.248 24H6.752A2.255 2.255 0 0 1 4.5 21.748V4.502A2.255 2.255 0 0 1 6.752 2.25H7.5V1.5C7.5.673 8.173 0 9 0h6c.827 0 1.5.673 1.5 1.5v.75ZM12.75 12h2.3c.256 0 .49.143.613.374a.712.712 0 0 1-.033.735l-3.132 4.583a.687.687 0 0 1-.765.279.69.69 0 0 1-.483-.67V14.25h-2.3a.696.696 0 0 1-.613-.374.713.713 0 0 1 .033-.735l3.133-4.584a.68.68 0 0 1 .764-.278.69.69 0 0 1 .483.67v3.05Z" fill="currentColor"/></svg>
